public/images/creative_commons.svg

<?xml version="1.0" encoding="UTF-8" standalone="no"?>
<svg width="220px" height="65px" viewBox="0 0 220 65" version="1.1" xmlns="http://www.w3.org/2000/svg" xmlns:xlink="http://www.w3.org/1999/xlink" xmlns:sketch="http://www.bohemiancoding.com/sketch/ns">
    <!-- Generator: Sketch 3.2.1 (9971) - http://www.bohemiancoding.com/sketch -->
    <title>Artboard 1</title>
    <desc>Created with Sketch.</desc>
    <defs></defs>
    <g id="Page-1" stroke="none" stroke-width="1" fill="none" fill-rule="evenodd" sketch:type="MSPage">
        <g id="Artboard-1" sketch:type="MSArtboardGroup" fill="#FFFFFF">
            <path d="M32.441,0.5 C41.392,0.5 49.013,3.625 55.298,9.872 C58.306,12.881 60.593,16.32 62.155,20.186 C63.716,24.053 64.499,28.157 64.499,32.5 C64.499,36.881 63.726,40.986 62.185,44.813 C60.642,48.641 58.365,52.023 55.357,54.956 C52.234,58.041 48.691,60.404 44.728,62.042 C40.767,63.68 36.671,64.499 32.443,64.499 C28.215,64.499 24.167,63.691 20.3,62.07 C16.434,60.452 12.967,58.109 9.9,55.043 C6.833,51.977 4.5,48.519 2.9,44.671 C1.3,40.823 0.5,36.767 0.5,32.5 C0.5,28.271 1.309,24.205 2.928,20.3 C4.547,16.395 6.9,12.9 9.985,9.814 C16.08,3.606 23.565,0.5 32.441,0.5 L32.441,0.5 Z M32.557,6.272 C25.243,6.272 19.09,8.825 14.099,13.929 C11.584,16.482 9.651,19.348 8.299,22.529 C6.945,25.71 6.27,29.034 6.27,32.501 C6.27,35.93 6.945,39.235 8.299,42.414 C9.652,45.597 11.584,48.435 14.099,50.93 C16.613,53.426 19.45,55.329 22.614,56.645 C25.775,57.959 29.09,58.616 32.557,58.616 C35.985,58.616 39.307,57.951 42.53,56.617 C45.749,55.282 48.651,53.36 51.243,50.846 C56.233,45.97 58.727,39.856 58.727,32.502 C58.727,28.959 58.079,25.607 56.784,22.445 C55.491,19.283 53.604,16.465 51.13,13.987 C45.984,8.844 39.795,6.272 32.557,6.272 L32.557,6.272 Z M32.156,27.187 L27.869,29.416 C27.411,28.465 26.85,27.797 26.184,27.416 C25.517,27.036 24.898,26.845 24.326,26.845 C21.47,26.845 20.04,28.73 20.04,32.502 C20.04,34.216 20.402,35.586 21.125,36.615 C21.849,37.644 22.916,38.159 24.326,38.159 C26.193,38.159 27.507,37.244 28.27,35.416 L32.212,37.416 C31.374,38.979 30.212,40.207 28.726,41.102 C27.242,41.998 25.603,42.445 23.812,42.445 C20.955,42.445 18.649,41.57 16.897,39.816 C15.145,38.064 14.269,35.626 14.269,32.503 C14.269,29.455 15.155,27.037 16.926,25.246 C18.697,23.456 20.935,22.56 23.641,22.56 C27.604,22.558 30.441,24.101 32.156,27.187 L32.156,27.187 Z M50.613,27.187 L46.384,29.416 C45.927,28.465 45.364,27.797 44.698,27.416 C44.03,27.036 43.391,26.845 42.784,26.845 C39.927,26.845 38.497,28.73 38.497,32.502 C38.497,34.216 38.86,35.586 39.583,36.615 C40.306,37.644 41.372,38.159 42.784,38.159 C44.649,38.159 45.964,37.244 46.725,35.416 L50.725,37.416 C49.85,38.979 48.668,40.207 47.184,41.102 C45.698,41.998 44.079,42.445 42.327,42.445 C39.431,42.445 37.118,41.57 35.386,39.816 C33.65,38.064 32.784,35.626 32.784,32.503 C32.784,29.455 33.669,27.037 35.442,25.246 C37.212,23.456 39.45,22.56 42.155,22.56 C46.117,22.558 48.938,24.101 50.613,27.187 L50.613,27.187 Z" id="Shape" sketch:type="MSShapeGroup"></path>
            <path d="M109.943,1 C118.931,1 126.513,4.085 132.685,10.257 C138.893,16.467 142,24.048 142,33 C142,41.991 138.951,49.476 132.855,55.456 C126.379,61.819 118.742,65 109.943,65 C101.294,65 93.79,61.856 87.429,55.57 C81.144,49.284 78,41.762 78,33 C78,24.239 81.144,16.658 87.429,10.258 C93.601,4.085 101.104,1 109.943,1 L109.943,1 Z M110.057,6.772 C102.781,6.772 96.629,9.325 91.6,14.429 C86.38,19.763 83.771,25.954 83.771,33.001 C83.771,40.087 86.361,46.221 91.541,51.399 C96.722,56.581 102.893,59.17 110.055,59.17 C117.178,59.17 123.389,56.563 128.684,51.342 C133.713,46.504 136.227,40.39 136.227,32.999 C136.227,25.723 133.674,19.534 128.571,14.428 C123.467,9.324 117.295,6.772 110.057,6.772 L110.057,6.772 Z M118.629,25.057 L118.629,38.142 L114.973,38.142 L114.973,53.684 L105.029,53.684 L105.029,38.143 L101.373,38.143 L101.373,25.057 C101.373,24.485 101.573,24 101.972,23.6 C102.373,23.201 102.859,23 103.429,23 L116.573,23 C117.106,23 117.583,23.2 118.001,23.6 C118.418,24 118.629,24.486 118.629,25.057 L118.629,25.057 Z M105.542,16.829 C105.542,13.821 107.027,12.315 110,12.315 C112.973,12.315 114.457,13.819 114.457,16.829 C114.457,19.8 112.971,21.286 110,21.286 C107.029,21.286 105.542,19.8 105.542,16.829 L105.542,16.829 Z" id="Shape" sketch:type="MSShapeGroup"></path>
            <path d="M186.943848,0 C195.896484,0 203.476562,3.105469 209.6875,9.314453 C215.894531,15.486328 219.000977,23.045898 219.000977,32 C219.000977,40.954102 215.952149,48.457031 209.855469,54.513672 C203.417969,60.837891 195.779297,64 186.942871,64 C178.293945,64 170.790039,60.857422 164.429199,54.570312 C158.144043,48.286133 155,40.761719 155,32.000977 C155,23.277344 158.144043,15.715821 164.429199,9.316407 C170.640137,3.105469 178.14502,0 186.943848,0 L186.943848,0 Z M187.060547,5.771484 C179.785156,5.771484 173.630859,8.341796 168.602051,13.486328 C163.381836,18.783203 160.772949,24.954102 160.772949,32 C160.772949,39.125 163.362793,45.256836 168.542969,50.400391 C173.724121,55.582032 179.89502,58.170899 187.058594,58.170899 C194.181641,58.170899 200.390625,55.562501 205.685547,50.342774 C210.713867,45.466797 213.228516,39.353516 213.228516,32 C213.228516,24.6875 210.674805,18.515625 205.572266,13.486328 C200.504883,8.341797 194.333984,5.771484 187.060547,5.771484 L187.060547,5.771484 Z M199.117188,24.456055 L199.117188,29.941407 L175.859863,29.941407 L175.859863,24.456055 L199.117188,24.456055 L199.117188,24.456055 Z M199.117188,34.743164 L199.117188,40.224609 L175.859863,40.224609 L175.859863,34.743164 L199.117188,34.743164 L199.117188,34.743164 Z" id="Shape" sketch:type="MSShapeGroup"></path>
        </g>
    </g>
</svg>

<?xml version="1.0" encoding="utf-8"?>
<!-- Generator: Adobe Illustrator 17.1.0, SVG Export Plug-In . SVG Version: 6.00 Build 0)  -->
<!DOCTYPE svg PUBLIC "-//W3C//DTD SVG 1.1//EN" "http://www.w3.org/Graphics/SVG/1.1/DTD/svg11.dtd">
<svg version="1.1" id="Layer_1" xmlns:sketch="http://www.bohemiancoding.com/sketch/ns"
	 xmlns="http://www.w3.org/2000/svg" xmlns:xlink="http://www.w3.org/1999/xlink" x="0px" y="0px" viewBox="0 0 220 65"
	 enable-background="new 0 0 220 65" xml:space="preserve">
<title>Artboard 1</title>
<desc>Created with Sketch.</desc>
<g id="Page-1" sketch:type="MSPage">
	<g id="Artboard-1" sketch:type="MSArtboardGroup">
		<path id="Shape" sketch:type="MSShapeGroup" d="M32.4,0.5c9,0,16.6,3.1,22.9,9.4c3,3,5.3,6.4,6.9,10.3c1.6,3.9,2.3,8,2.3,12.3
			c0,4.4-0.8,8.5-2.3,12.3c-1.5,3.8-3.8,7.2-6.8,10.1c-3.1,3.1-6.7,5.4-10.6,7.1c-4,1.6-8.1,2.5-12.3,2.5s-8.3-0.8-12.1-2.4
			c-3.9-1.6-7.3-4-10.4-7c-3.1-3.1-5.4-6.5-7-10.4s-2.4-7.9-2.4-12.2c0-4.2,0.8-8.3,2.4-12.2s4-7.4,7.1-10.5
			C16.1,3.6,23.6,0.5,32.4,0.5L32.4,0.5z M32.6,6.3c-7.3,0-13.5,2.6-18.5,7.7c-2.5,2.6-4.4,5.4-5.8,8.6c-1.4,3.2-2,6.5-2,10
			c0,3.4,0.7,6.7,2,9.9c1.4,3.2,3.3,6,5.8,8.5c2.5,2.5,5.4,4.4,8.5,5.7c3.2,1.3,6.5,2,9.9,2c3.4,0,6.8-0.7,10-2
			c3.2-1.3,6.1-3.3,8.7-5.8c5-4.9,7.5-11,7.5-18.3c0-3.5-0.6-6.9-1.9-10.1c-1.3-3.2-3.2-6-5.7-8.5C46,8.8,39.8,6.3,32.6,6.3
			L32.6,6.3z M32.2,27.2l-4.3,2.2c-0.5-1-1-1.6-1.7-2c-0.7-0.4-1.3-0.6-1.9-0.6c-2.9,0-4.3,1.9-4.3,5.7c0,1.7,0.4,3.1,1.1,4.1
			c0.7,1,1.8,1.5,3.2,1.5c1.9,0,3.2-0.9,3.9-2.7l3.9,2c-0.8,1.6-2,2.8-3.5,3.7c-1.5,0.9-3.1,1.3-4.9,1.3c-2.9,0-5.2-0.9-6.9-2.6
			c-1.8-1.8-2.6-4.2-2.6-7.3c0-3,0.9-5.5,2.7-7.3c1.8-1.8,4-2.7,6.7-2.7C27.6,22.6,30.4,24.1,32.2,27.2L32.2,27.2z M50.6,27.2
			l-4.2,2.2c-0.5-1-1-1.6-1.7-2c-0.7-0.4-1.3-0.6-1.9-0.6c-2.9,0-4.3,1.9-4.3,5.7c0,1.7,0.4,3.1,1.1,4.1c0.7,1,1.8,1.5,3.2,1.5
			c1.9,0,3.2-0.9,3.9-2.7l4,2c-0.9,1.6-2.1,2.8-3.5,3.7c-1.5,0.9-3.1,1.3-4.9,1.3c-2.9,0-5.2-0.9-6.9-2.6c-1.7-1.8-2.6-4.2-2.6-7.3
			c0-3,0.9-5.5,2.7-7.3c1.8-1.8,4-2.7,6.7-2.7C46.1,22.6,48.9,24.1,50.6,27.2L50.6,27.2z"/>
		<path id="Shape_1_" sketch:type="MSShapeGroup" d="M109.9,1c9,0,16.6,3.1,22.7,9.3C138.9,16.5,142,24,142,33c0,9-3,16.5-9.1,22.5
			c-6.5,6.4-14.1,9.5-22.9,9.5c-8.6,0-16.2-3.1-22.5-9.4C81.1,49.3,78,41.8,78,33c0-8.8,3.1-16.3,9.4-22.7C93.6,4.1,101.1,1,109.9,1
			L109.9,1z M110.1,6.8c-7.3,0-13.4,2.6-18.5,7.7C86.4,19.8,83.8,26,83.8,33c0,7.1,2.6,13.2,7.8,18.4c5.2,5.2,11.4,7.8,18.5,7.8
			c7.1,0,13.3-2.6,18.6-7.8c5-4.8,7.5-11,7.5-18.3c0-7.3-2.6-13.5-7.7-18.6C123.5,9.3,117.3,6.8,110.1,6.8L110.1,6.8z M118.6,25.1
			v13.1H115v15.5H105V38.1h-3.7V25.1c0-0.6,0.2-1.1,0.6-1.5c0.4-0.4,0.9-0.6,1.5-0.6h13.1c0.5,0,1,0.2,1.4,0.6
			C118.4,24,118.6,24.5,118.6,25.1L118.6,25.1z M105.5,16.8c0-3,1.5-4.5,4.5-4.5s4.5,1.5,4.5,4.5c0,3-1.5,4.5-4.5,4.5
			S105.5,19.8,105.5,16.8L105.5,16.8z"/>
		<path id="Shape_2_" sketch:type="MSShapeGroup" d="M186.9,0c9,0,16.5,3.1,22.7,9.3C215.9,15.5,219,23,219,32s-3,16.5-9.1,22.5
			c-6.4,6.3-14.1,9.5-22.9,9.5c-8.6,0-16.2-3.1-22.5-9.4c-6.3-6.3-9.4-13.8-9.4-22.6c0-8.7,3.1-16.3,9.4-22.7
			C170.6,3.1,178.1,0,186.9,0L186.9,0z M187.1,5.8c-7.3,0-13.4,2.6-18.5,7.7c-5.2,5.3-7.8,11.5-7.8,18.5c0,7.1,2.6,13.3,7.8,18.4
			c5.2,5.2,11.4,7.8,18.5,7.8c7.1,0,13.3-2.6,18.6-7.8c5-4.9,7.5-11,7.5-18.3c0-7.3-2.6-13.5-7.7-18.5
			C200.5,8.3,194.3,5.8,187.1,5.8L187.1,5.8z M199.1,24.5v5.5h-23.3v-5.5H199.1L199.1,24.5z M199.1,34.7v5.5h-23.3v-5.5H199.1
			L199.1,34.7z"/>
	</g>
</g>
</svg>
